svg/off.svg

<?xml version="1.0" encoding="UTF-8"?>
<svg xmlns="http://www.w3.org/2000/svg" xmlns:xlink="http://www.w3.org/1999/xlink" width="32" height="32" viewBox="0 0 32 32">
<path fill-rule="nonzero" fill="rgb(0%, 0%, 0%)" fill-opacity="1" d="M 8.960938 7.039062 C 4.019531 7.039062 0 11.058594 0 16 C 0 20.941406 4.019531 24.960938 8.960938 24.960938 C 13.898438 24.960938 17.921875 20.941406 17.921875 16 C 17.921875 11.058594 13.898438 7.039062 8.960938 7.039062 M 13.898438 7.039062 C 17.054688 8.789062 19.199219 12.148438 19.199219 16 C 19.199219 19.851562 17.054688 23.210938 13.898438 24.960938 L 23.039062 24.960938 C 27.980469 24.960938 32 20.941406 32 16 C 32 11.058594 27.980469 7.039062 23.039062 7.039062 Z M 13.898438 7.039062 "/>
</svg>

<svg role="img" viewBox="0 0 32 32" height="32" width="32" xmlns="http://www.w3.org/2000/svg"><path d="M8.96 7.04C4.02 7.04 0 11.058 0 16c0 4.941 4.02 8.96 8.96 8.96 4.938 0 8.962-4.019 8.962-8.96 0-4.941-4.024-8.96-8.961-8.96m4.937 0C17.055 8.79 19.2 12.147 19.2 16c0 3.852-2.144 7.21-5.3 8.96h9.14c4.94 0 8.96-4.018 8.96-8.96 0-4.941-4.02-8.96-8.96-8.96Zm0 0"/></svg>
